icons/microchip.svg

<svg width="512" height="512" viewBox="0 0 512 512" fill="none" xmlns="http://www.w3.org/2000/svg">
<g clip-path="url(#clip0_493_6981)">
<path fill-rule="evenodd" clip-rule="evenodd" d="M363 85H339.023V24.999C339.023 11.199 327.823 -0.000977166 314.023 -0.000976562C300.223 -0.000975959 289.023 11.199 289.023 24.999V85H222V46.8986C222 33.0986 210.8 21.8986 197 21.8986C183.2 21.8986 172 33.0986 172 46.8986V85H150C114.16 85 85 114.16 85 150V172.488H24.5117C10.7117 172.488 -0.488282 183.688 -0.488281 197.488C-0.488279 211.288 10.7117 222.488 24.5117 222.488H85V289.511H46.4113C32.6113 289.511 21.4113 300.711 21.4113 314.511C21.4113 328.311 32.6113 339.511 46.4113 339.511H85V362C85 397.84 114.16 427 150 427H172L172 487C172 500.8 183.2 512 197 512C210.8 512 222 500.8 222 487V427H289.023V465.1C289.023 478.9 300.223 490.1 314.023 490.1C327.823 490.1 339.023 478.9 339.023 465.1V427H363C398.84 427 428 397.84 428 362V339.511H486.51C500.311 339.511 511.51 328.311 511.51 314.511C511.51 300.711 500.311 289.511 486.51 289.511H428V222.488H464.611C478.411 222.488 489.611 211.288 489.611 197.488C489.611 183.688 478.411 172.488 464.611 172.488H428V150C428 114.16 398.84 85 363 85ZM150 135C141.73 135 135 141.73 135 150V362C135 370.27 141.73 377 150 377H363C371.27 377 378 370.27 378 362V150C378 141.73 371.27 135 363 135H150Z" fill="black"/>
</g>
<defs>
<clipPath id="clip0_493_6981">
<rect width="512" height="512" fill="white"/>
</clipPath>
</defs>
</svg>

<svg xmlns="http://www.w3.org/2000/svg" width="512" height="512" fill="none"><g clip-path="url(#a)"><path fill="#000" fill-rule="evenodd" d="M363 85h-23.977V24.999c0-13.8-11.2-25-25-25s-25 11.2-25 25V85H222V46.899c0-13.8-11.2-25-25-25s-25 11.2-25 25V85h-22c-35.84 0-65 29.16-65 65v22.488H24.512c-13.8 0-25 11.2-25 25s11.2 25 25 25H85v67.023H46.411c-13.8 0-25 11.2-25 25s11.2 25 25 25H85V362c0 35.84 29.16 65 65 65h22v60c0 13.8 11.2 25 25 25s25-11.2 25-25v-60h67.023v38.1c0 13.8 11.2 25 25 25s25-11.2 25-25V427H363c35.84 0 65-29.16 65-65v-22.489h58.51c13.801 0 25-11.2 25-25s-11.199-25-25-25H428v-67.023h36.611c13.8 0 25-11.2 25-25s-11.2-25-25-25H428V150c0-35.84-29.16-65-65-65Zm-213 50c-8.27 0-15 6.73-15 15v212c0 8.27 6.73 15 15 15h213c8.27 0 15-6.73 15-15V150c0-8.27-6.73-15-15-15H150Z" clip-rule="evenodd"/></g><defs><clipPath id="a"><path fill="#fff" d="M0 0h512v512H0z"/></clipPath></defs></svg>
